X: 1
T: Suka\vcko Kolo   [D]
O: Croatia
Z: 2016 John Chambers <jc:trillian.mit.edu>
S: Handwritten copies from Mandala and Unknown.
M: 2/4
L: 1/8
K: D
|:\
"D"[fd][af] [^g^e][af] | "G"[b2g2] "D"[a2f2] | "E"[^g2e2] "D"[f2d2] |\
"D"[af][^g^e] [af][fd] | [a2f2] [f2d2] | "A"[e2c2] "D"[d2A2] :|
|:\
"D"[dd][dd] "A"[ecA][ecA] | "D"[fd][fd] "A"[ae]>g |\
"D"[fd][fd] "A"[ecA][ecA] |1 "D"[d2A2F2] [dAF]A :|2 "D"[d2A2F2] [d2A2F2] :|
